svg/blobs-icons/no-decorations/star-grey.svg

<svg xmlns="http://www.w3.org/2000/svg" xmlns:xlink="http://www.w3.org/1999/xlink" preserveAspectRatio="xMidYMid" width="216" height="206" viewBox="0 0 216 206"><defs><style>.cls-3{fill:#ccc}.cls-4{fill:#060606;opacity:.25}</style></defs><g id="group-38svg"><path d="M141.171 67.774s74.367 11.505 74.367 11.505-54.368 52.027-54.368 52.027 12.039 74.282 12.039 74.282-66.283-35.628-66.283-35.628-66.928 34.402-66.928 34.402 13.403-74.047 13.403-74.047S-.001 77.297-.001 77.297 74.565 67.161 74.565 67.161 108.489-.01 108.489-.01s32.682 67.784 32.682 67.784z" id="path-1" class="cls-3" fill-rule="evenodd"/><path d="M127.732 64.414s12.772 1.976 12.772 1.976S108.489-.01 108.489-.01 102.443 11.963 102.443 11.963s25.289 52.451 25.289 52.451z" id="path-2" class="cls-4" fill-rule="evenodd"/><path d="M93.486 166.6s-51.439 26.442-51.439 26.442-2.049 11.32-2.049 11.32 63.253-32.514 63.253-32.514S93.486 166.6 93.486 166.6z" id="path-3" class="cls-4" fill-rule="evenodd"/><path d="M215.538 79.279S200.948 77.022 200.948 77.022s-53.216 50.925-53.216 50.925 11.352 70.048 11.352 70.048S173.209 205.587 173.209 205.587s-12.039-74.281-12.039-74.281 54.368-52.027 54.368-52.027z" id="path-4" class="cls-4" fill-rule="evenodd"/></g></svg>

<svg xmlns="http://www.w3.org/2000/svg" xmlns:xlink="http://www.w3.org/1999/xlink" preserveAspectRatio="xMidYMid" width="216" height="206" viewBox="0 0 216 206">
  <defs>
    <style>

      .cls-3 {
        fill: #cccccc;
      }

      .cls-4 {
        fill: #060606;
        opacity: 0.25;
      }
    </style>
  </defs>
  <g id="group-38svg">
    <path d="M141.171,67.774 C141.171,67.774 215.538,79.279 215.538,79.279 C215.538,79.279 161.170,131.306 161.170,131.306 C161.170,131.306 173.209,205.588 173.209,205.588 C173.209,205.588 106.926,169.960 106.926,169.960 C106.926,169.960 39.998,204.362 39.998,204.362 C39.998,204.362 53.401,130.315 53.401,130.315 C53.401,130.315 -0.001,77.297 -0.001,77.297 C-0.001,77.297 74.565,67.161 74.565,67.161 C74.565,67.161 108.489,-0.010 108.489,-0.010 C108.489,-0.010 141.171,67.774 141.171,67.774 Z" id="path-1" class="cls-3" fill-rule="evenodd"/>
    <path d="M127.732,64.414 C127.732,64.414 140.504,66.390 140.504,66.390 C140.504,66.390 108.489,-0.010 108.489,-0.010 C108.489,-0.010 102.443,11.963 102.443,11.963 C102.443,11.963 127.732,64.414 127.732,64.414 Z" id="path-2" class="cls-4" fill-rule="evenodd"/>
    <path d="M93.486,166.600 C93.486,166.600 42.047,193.042 42.047,193.042 C42.047,193.042 39.998,204.362 39.998,204.362 C39.998,204.362 103.251,171.848 103.251,171.848 C103.251,171.848 93.486,166.600 93.486,166.600 Z" id="path-3" class="cls-4" fill-rule="evenodd"/>
    <path d="M215.538,79.279 C215.538,79.279 200.948,77.022 200.948,77.022 C200.948,77.022 147.732,127.947 147.732,127.947 C147.732,127.947 159.084,197.995 159.084,197.995 C159.084,197.995 173.209,205.587 173.209,205.587 C173.209,205.587 161.170,131.306 161.170,131.306 C161.170,131.306 215.538,79.279 215.538,79.279 Z" id="path-4" class="cls-4" fill-rule="evenodd"/>
  </g>
</svg>
